svg/toolbox_outline.svg

<svg xmlns="http://www.w3.org/2000/svg" viewBox="0 0 24 24"><path d="M20 18v-4h-3v1h-2v-1H9v1H7v-1H4v4zM6.33 8l-1.74 4H7v-1h2v1h6v-1h2v1h2.41l-1.74-4zM9 5v1h6V5zm12.84 7.61c.1.22.16.48.16.8V18c0 .53-.21 1-.6 1.41-.4.4-.85.59-1.4.59H4c-.55 0-1-.19-1.4-.59C2.21 19 2 18.53 2 18v-4.59c0-.32.06-.58.16-.8L4.5 7.22C4.84 6.41 5.45 6 6.33 6H7V5c0-.55.18-1 .57-1.41C7.96 3.2 8.44 3 9 3h6c.56 0 1.04.2 1.43.59.39.41.57.86.57 1.41v1h.67c.88 0 1.49.41 1.83 1.22z"/></svg>

<?xml version="1.0" encoding="UTF-8"?><!DOCTYPE svg PUBLIC "-//W3C//DTD SVG 1.1//EN" "http://www.w3.org/Graphics/SVG/1.1/DTD/svg11.dtd"><svg xmlns="http://www.w3.org/2000/svg" xmlns:xlink="http://www.w3.org/1999/xlink" version="1.1" id="mdi-toolbox-outline" width="24" height="24" viewBox="0 0 24 24"><path d="M20,18V14H17V15H15V14H9V15H7V14H4V18H20M6.33,8L4.59,12H7V11H9V12H15V11H17V12H19.41L17.67,8H6.33M9,5V6H15V5H9M21.84,12.61C21.94,12.83 22,13.09 22,13.41V18C22,18.53 21.79,19 21.4,19.41C21,19.81 20.55,20 20,20H4C3.45,20 3,19.81 2.6,19.41C2.21,19 2,18.53 2,18V13.41C2,13.09 2.06,12.83 2.16,12.61L4.5,7.22C4.84,6.41 5.45,6 6.33,6H7V5C7,4.45 7.18,4 7.57,3.59C7.96,3.2 8.44,3 9,3H15C15.56,3 16.04,3.2 16.43,3.59C16.82,4 17,4.45 17,5V6H17.67C18.55,6 19.16,6.41 19.5,7.22L21.84,12.61Z" /></svg>
